assets/icons/icon_quiz.svg

<svg width="30" height="30" viewBox="0 0 30 30" fill="none"
    xmlns="http://www.w3.org/2000/svg">
    <path d="M12.1875 24.375C9.25875 24.375 6.875 21.9913 6.875 19.0625V6.25H4.6875C2.79125 6.25 1.25 7.79125 1.25 9.6875V26.5625C1.25 28.4587 2.79125 30 4.6875 30H20.3125C22.2087 30 23.75 28.4587 23.75 26.5625V24.375H12.1875Z" fill="#818CF8"/>
    <path fill-rule="evenodd" clip-rule="evenodd" d="M25.5625 0C27.4613 0 29 1.53875 29 3.4375V19.0625C29 20.9613 27.4613 22.5 25.5625 22.5H12.4375C10.5387 22.5 9 20.9613 9 19.0625V3.4375C9 1.53875 10.5387 0 12.4375 0H25.5625ZM13 4.25C12.4477 4.25 12 4.69772 12 5.25C12 5.80228 12.4477 6.25 13 6.25H25C25.5523 6.25 26 5.80228 26 5.25C26 4.69772 25.5523 4.25 25 4.25H13ZM12 11.25C12 10.6977 12.4477 10.25 13 10.25H25C25.5523 10.25 26 10.6977 26 11.25C26 11.8023 25.5523 12.25 25 12.25H13C12.4477 12.25 12 11.8023 12 11.25ZM13 16.25C12.4477 16.25 12 16.6977 12 17.25C12 17.8023 12.4477 18.25 13 18.25H25C25.5523 18.25 26 17.8023 26 17.25C26 16.6977 25.5523 16.25 25 16.25H13Z" fill="#3730A3"/>
</svg>

<svg fill="none" xmlns="http://www.w3.org/2000/svg" viewBox="0 0 30 30"><path d="M12.19 24.38a5.3 5.3 0 0 1-5.31-5.32V6.25h-2.2a3.44 3.44 0 0 0-3.43 3.44v16.87c0 1.9 1.54 3.44 3.44 3.44H20.3c1.9 0 3.44-1.54 3.44-3.44v-2.18z" fill="#818CF8"/><path fill-rule="evenodd" clip-rule="evenodd" d="M25.56 0C27.46 0 29 1.54 29 3.44v15.62c0 1.9-1.54 3.44-3.44 3.44H12.44A3.44 3.44 0 0 1 9 19.06V3.44C9 1.54 10.54 0 12.44 0zM13 4.25a1 1 0 1 0 0 2h12a1 1 0 1 0 0-2zm-1 7a1 1 0 0 1 1-1h12a1 1 0 1 1 0 2H13a1 1 0 0 1-1-1m1 5a1 1 0 1 0 0 2h12a1 1 0 1 0 0-2z" fill="#3730A3"/></svg>
